X:1
T:Där borta
T:Ludvig Norman (1831-1885)
T:Text: J. S. Welhaven
T:Det guddommelige lys
T:Op 53
T:©PA Aglert Edition may be freely distributed, duplicated, performed and recorded
T:©PA Aglert Edition may be freely distributed, duplicated, performed and recorded
T:©PA Aglert Edition may be freely distributed, duplicated, performed and recorded
T:©PA Aglert Edition may be freely distributed, duplicated, performed and recorded
T:©PA Aglert Edition may be freely distributed, duplicated, performed and recorded
T:©PA Aglert Edition may be freely distributed, duplicated, performed and recorded
T:©PA Aglert Edition may be freely distributed, duplicated, performed and recorded
C:Ludvig Norman (1831-1885)
Z:©PA Aglert
Z:Edition may be freely distributed, duplicated, performed and recorded
%%score [ 1 2 3 4 ]
L:1/8
Q:1/4=120
M:4/4
K:F
V:1 treble nm="S"
V:2 treble nm="A"
V:3 treble-8 nm="T"
V:4 bass nm="B"
V:1
"^Höitideligt, men ei for langsomt"!p! c3 c e2 d2 | d3 B d2 c2 |!>(! (A6 G2)!>)! | F6 z2 | %4
w: O du re- ne|Glands for Ann- dens|Öi- *|e!|
!p! F2 F2 !>!c3 B | !>!B3 A ^G2 A2 | z2!mf! cc !>!e3 d |"^cresc." dc!<(! d>e g2!<)! f2 | %8
w: o- ver Da- gens|tran- ge Sce- ne,|o- ver al- le|sol- be- lys- te Höi- e|
!f! e2 e>d c3 z |!f! f2"^cresc." f>e d3 z | (g4 d2) f2 | (e3 d) c2 z2 | %12
w: hæ- ver du mig,|hæ- ver du mig,|du _ al-|le- * ne.|
!p!"^enkelte stemmer" G3 G G2 A2 | cB B>A G2 ^F2 |!<(! GGAB d3!<)! c |!>(! c4!>)! d2 z2 | %16
w: Dy- best in- de|i mit Tung- sinds Gan- ge|kun- de du mit Hjer- te|fin- de.|
 z2!mf! GG!<(! d3 c | =Bc !>!f>d c2 B2!<)! |!f! !courtesy!_B>B B2 z Afd | %19
w: Som en fri- kjendt,|lys- be- gjer- lig Fan- ge|saae jeg dig, min Sol op-|
 (!>!=B7/2 c/)!>(! c4!>)! |!pp!"^Alle" c3 c e2 d2 | d3 B d2 c2 | (A6 G2) | F6 z2 |!p! F3 F c2 B2 | %25
w: ren- * de.|Mor- gen rö- de|for mit Mulm her-|ne _|den,|du, der skin- ner|
!<(! B3 A ^G2!<)! A2 |!mf! !courtesy!=G3!<(! G !courtesy!=e2!<)! d2 | d3!<(! ^c d2!<)! e2 | %28
w: blandt de Dö- de!|Du der skin- ner|blandt de Dö- de!|
!f! f6 A2 | !>!_e4 d2 z2 |!mf! d3 !courtesy!=e ^c2 A2 |"^dim." B4 B4 |!p! B2 B>B A3 z | %33
w: Elsk- te|Sje- le,|som i Sorg gik|he- den,|för- te du mig|
!>(! c2 B>F (G3 B)!>)! |!pp! A6 G2 | G4 F2 z2 |!pp! F6 G2 | E4 A4 |!>(! A3 A A2!>)! =B2 | %39
w: för- te du mig _|mildt i-|mö- de.|Mis- mods|Kla- ge|skal som Taa- ge|
 .c2 .c2 z4 |!f! A2 A2 c3 c | z4!<(! c2 _e2!<)! | g3 g f2 _e2 | _e2 d2 z2!p! dd | G6 c2 | %45
w: let- tes;|op mod Ly- set|op mod|Ly- set vil jeg|dra- ge, og for|Smer- ter,|
 z2 FF E2 F2 | B6 A2 |!pp! z2 !>!A4 A2 |!<(! A2 G2!<)!!>(! c2!>)! B2 |!>(! (A6 G2)!>)! | %50
w: som kan ei for-|gjet- tes|grin- ge|Dul- mel- se til-|ba- *|
 A4!<(! A2 A2!<)! |!f! f3!>(! d G2!>)! A2 |!p!!<(! c8!<)! |!>(! F6!>)! z2 |] %54
w: ge, brin- ge|Dul- mel- se til-|ba-|ge.|
V:2
!p! F3 F F2 F2 | F3 F F2 F2 |!>(! (F4 E4)!>)! | F6 z2 |!p! F2 F2 !>!F3 F | !>!F3 F F2 F2 | %6
w: O du re- ne|Glands for Ann- dens|Öi- *|e!|o- ver Da- gens|tran- ge Sce- ne,|
 z2!mf! FA !>!G3 G |"^cresc." GG!<(! =B>c A2!<)! A2 |!f! ^G2 G>G A3 z | %9
w: o- ver al- le|sol- be- lys- te Höi- e|hæ- ver du mig,|
!f! F2"^cresc." F>!courtesy!=G A3 z | (G4 A2) F2 | F4 E2 z2 |!p! E3 E _E2 E2 | _ED D>E D2 D2 | %14
w: hæ- ver du mig,|du _ al-|le- ne.|Dy- best in- de|i mit Tung- sinds Gan- ge|
!<(! DD^FG G3!<)! G |!>(! (G2 !courtesy!=F2)!>)! F2!mf! FF | (F4!<(! E3) F | FF !>!F>F F2 F2!<)! | %18
w: kun- de du mit Hjer- te|fin- * de. Som en|fri- * kjendt,|lys- be- gjer- lig Fan- ge|
!f! E>F G2 z GFA | (!>!F7/2 E/)!>(! E4!>)! |!pp! F3 F F2 F2 | F3 F E2 F2 | (F4 E4) | F6 z2 | %24
w: saae jeg dig, min Sol op-|ren- * de.|Mor- gen rö- de|for mit Mulm her-|ne _|den,|
!p! F3 F F2 F2 |!<(! F3 F F2!<)! F2 |!mf! F3!<(! F G2!<)! ^G2 | A3!<(! B A2!<)! !courtesy!=G2 | %28
w: du, der skin- ner|blandt de Dö- de!|Du der skin- ner|blandt de Dö- de!|
!f! F6 F2 | !>!F6 ^F2 |!mf! G3 ^G A2 E2 |"^dim." E6 F2 |!p! G6 F>F |!>(! F8!>)! |!pp! F6 E2 | %35
w: Elsk- te|Sje- le,|som i Sorg gik|he- den,|för- te du|mig|mildt i-|
 E6 (D^C) |!pp! D6 D2 | (^C4 D2) E2 |!>(! F3 A G2!>)! F2 | .F2 .E2 z4 |!f! F2 F2 A3 A | %41
w: mö- de. _|Mis- mods|Kla- * ge|skal som Taa- ge|let- tes;|op mod Ly- set|
 z4!<(! c2!<)! c2 | A3 A B2 c2 | F2 F2 z4 | z2!p! FF !>!E2 F2 | !courtesy!=D6 D2 | %46
w: op mod|Ly- set vil jeg|dra- ge,|og for Smer- ter,|som kan|
!<(! C3!<)! _D!>(! D2!>)! C2 |!pp! z2 !>!C4 ^C2 |!<(! D2 D2!<)!!>(! ^F2 G2!>)! | %49
w: ei for- gjet- tes|grin- ge|Dul- mel- se til-|
 (!courtesy!=F6 E2) | F4!<(! F2!<)! F2 |!f! F2!>(! F2 F2!>)! F2 |!p!!<(! (F4 E4)!<)! | %53
w: ba- *|ge, brin- ge|Dul- mel- se til-|ba- *|
!>(! C6!>)! z2 |] %54
w: ge.|
V:3
!p! A3 A c2 B2 | B3 G B2 A2 |!>(! (c6 B2)!>)! | A6 z2 |!p! f2 f2 !>!e3 d | !>!d3 c =B2 c2 | %6
w: O du re- ne|Glands for Ann- dens|Öi- *|e!|o- ver Da- gens|tran- ge Sce- ne,|
 z2!mf! Ac !>!=B3 B |"^cresc." =Bc!<(! f>e d2!<)! d2 |!f! =B2 B>B c3 z |!f! c2"^cresc." c>c c3 z | %10
w: o- ver al- le|sol- be- lys- te Höi- e|hæ- ver du mig,|hæ- ver du mig,|
 c6 c2 | (c2 =B2) c2 z2 |!p! c3 c c2 c2 | AB d>c B2 A2 |!<(! GGcB G3!<)! B | %15
w: du al-|le- * ne.|Dy- best in- de|i mit Tung- sinds Gan- ge|kun- de du mit Hjer- te|
!>(! (B2 A2)!>)! B2 z2 | z2!mf! dd!<(! c3 c | cc !>!c>c d2 d2!<)! |!f! ^c>c c2 z cdd | %19
w: fin- * de.|Som en fri- kjendt,|lys- be- gjer- lig Fan- ge|saae jeg dig, min Sol op-|
 (!>!d7/2 !courtesy!=c/)!>(! (c2!>)! !courtesy!_B2) |!pp! A3 A c2 B2 | B3 G B2 A2 | (c6 B2) | %23
w: ren- * de. _|Mor- gen rö- de|for mit Mulm her-|ne _|
 A6 z2 |!p! A3 A A2 B2 |!<(! _e3 e e2!<)! e2 |!mf! d3!<(! d d2!<)! !courtesy!=e2 | %27
w: den,|du, der skin- ner|blandt de Dö- de!|Du der skin- ner|
 f3!<(! g f2!<)! ^c2 |!f! (d2 A2 ^G2) A2 | !>!A4 B2 z2 |!mf! d3 d e2 ^c2 |"^dim." ^c6 _d2 | %32
w: blandt de Dö- de!|Elsk- * * te|Sje- le,|som i Sorg gik|he- den,|
!p! !courtesy!=c6 d>_e |!>(! d8!>)! |!pp! (c4 F2) B2 | B4 A2 z2 |!pp! (A2 d2) (c2 B2) | B4 A2 z2 | %38
w: för- te du|mig|mildt _ i-|mö- de.|Mis- * mods _|Kla- ge|
 z2!>(! Af e2!>)! d2 | .c2 .c2!f!!<(! c2 c2!<)! | f6 f2 | z2 cc!<(! f2!<)! f2 | (_e4 d2) c2 | %43
w: skal som Taa- ge|let- tes; op mod|Ly- set|op mod Ly- set|vil _ jeg|
 c2 d2 z4 | z2!p! dd !>!_d2 c2 | z2 BB B2 B2 | G6 A2 |!pp! z2 !>!F4 F2 | %48
w: dra- ge,|og for Smer- ter,|som kan ei for-|gjet- tes|grin- ge|
!<(! ^F2 G2!<)!!>(! A2!>)! B2 |!>(! c8!>)! | c4!<(! d2!<)! _e2 |!f! d2!>(! d2 d2!>)! c2 | %52
w: Dul- mel- se til-|ba-|ge, brin- ge|Dul- mel- se til-|
!p!!<(! B8!<)! |!>(! A6!>)! z2 |] %54
w: ba-|ge.|
V:4
!p! F,3 F, F,2 F,2 | F,3 F, F,2 F,2 |!>(! C,8!>)! | F,6 z2 | z8 | z8 | z2!mf! F,F, !>!F,3 F, | %7
w: O du re- ne|Glands for Ann- dens|Öi-|e!|||o- ver al- le|
"^cresc." F,E,!<(! D,>C, D,2!<)! D,2 |!f! E,2 E,>E, A,3 z | %9
w: sol- be- lys- te Höi- e|hæ- ver du mig,|
!f! A,2"^cresc." A,>!courtesy!=G, F,3 z | (E,4 F,2) D,2 | G,4 C,2 z2 |!p! C3 C C2 ^F,2 | %13
w: hæ- ver du mig,|du _ al-|le- ne.|Dy- best in- de|
 ^F,G, B,,>C, D,2 D,2 |!<(! B,,B,,A,,G,, _E,3!<)! E, |!>(! F,4!>)! B,,2 z2 | %16
w: i mit Tung- sinds Gan- ge|kun- de du mit Hjer- te|fin- de.|
 z2!mf! B,B,!<(! B,3 A, | A,A, !>!_A,>A, G,2 G,2!<)! |!f! G,>F, E,2 z E,D,F, | %19
w: Som en fri- kjendt,|lys- be- gjer- lig Fan- ge|saae jeg dig, min Sol op-|
 (!>!G,7/2 C,/)!>(! C,4!>)! |!pp! C,6 C,2 | C,6 C,2 | C,3 C, C,2 ^C,2 | %23
w: ren- * de.|Mor- gen|rö- de|for mit Mulm her-|
!<(! D,3 D, D,2 (^C,!<)!D,) |!p! _E,6 D,2 |!<(! C,3 C =B,2!<)! C2 |!mf! =B,3!<(! B, _B,2!<)! B,2 | %27
w: ne den, du, der _|skin- ner|blandt de Dö- de!|Du der skin- ner|
 A,3!<(! A, A,2!<)! A,,2 |!f! D,6 D,2 | !>!C,4 B,,2 z2 |!mf! B,3 B, A,2 A,2 |"^dim." G,6 F,2 | %32
w: blandt de Dö- de!|Elsk- te|Sje- le,|som i Sorg gik|he- den,|
!p! E,2 E,>E, F,3 z |!>(! B,,6 B,,>!>)!B,, |!pp! C,4 C,2 C,2 | (C,3 ^C,) D,2 z2 |!pp! D,6 G,,2 | %37
w: för- te du mig|för- te du|mig mildt i-|mö- * de.|Mis- mods|
 G,4 (F,2 E,2) | D,3!>(! D, D,2!>)! G,2 | .C,2 .C,2 z4 | z4 z2!f! C,C, | !>!A,6 A,2 | %42
w: Kla- ge _|skal som Taa- ge|let- tes;|op mod|Ly- set|
 (F,4 G,2) A,2 | B,2 B,2 z4 | z2!p! B,B, !>!B,2 A,2 | z2 A,A, G,2 F,2 | E,6 F,2 | %47
w: vil _ jeg|dra- ge,|og for Smer- ter,|som kan ei for-|gjet- tes|
!pp! z2 !>!A,,4 A,,2 |!<(! B,,2 B,,2!<)!!>(! A,,2 G,,2!>)! |!>(! C,8!>)! | F,4!<(! F,2!<)! F,2 | %51
w: grin- ge|Dul- mel- se til-|ba-|ge, brin- ge|
!f! B,,2!>(! B,,2 B,2!>)! A,2 |!p!!<(! (G,4 C,4)!<)! |!>(! F,6!>)! z2 |] %54
w: Dul- mel- se til-|ba- *|ge.|

